X:27
T:Hils Fra Meg Der Hjemme
C:av Elith Worsing
O:Swedish-American
R:Waltz
L:1/4
M:3/4
K:C
% %rightmargin 11.5cm
"Intro"|\
"G7"G2 G | A2 B | ("C"c3 | c3)
% %rightmargin 2.78cm
%P:Verse
|: "C"G2 A | "G7"G-G A | "C"G2 F | E3 | "F"c2 d | "C"c2 d | "F"c2 B | A3 |
w:I den stil-*le tau-se natt St\aar jeg her ved ski-pets ratt,
w:Un-der him-mel-ens h\oy-e tak  H\or-es fjer-ne ving-es-lag,
[1 "F"c2 A | G-G F | "C"E2 F | G3- | G2 G | "Dm" F2 E | ("G7"D3 | D3) :|
w:un-der him-mel-ens stjern-e-vell, Ene og for-latt.
[2 "F"A2 B | c2 d | "C"e2 c | G2 E | "Dm" G2 F | "G7" E2 D | ("C"C3 | C3 ) ||
w:Fu-gle-trek-ket at-ter gar Mot nord, mot ly-se v\aar.
%P:Chorus
"C"c2 c | B2 B | "F"A3 | "Dm"F3 | "G7"B2 B | A2 A | ("C"G3 | G3) |
w:Hils fra meg der hjem-me, Hils min far og mor,
"A7"A2 A | G2 G | "Dm"F3 | D3 | "G7"G2 G | F2 F | ("C"E3 | E3) |
w:Hils de gr\on-ne li-er Og den blan-ke fjord
"C"c2 c | e2 e | "F"d3 | A3 | "G7"B2 B | "E7"d2 d | ("Am"c3 | c3 ) |
w:Hvis jeg had-de vin-ger Fl\oy jeg hjem med deg
"C"c2 c | G2 G | "F" B3 | "Dm"A3 | "G7"G2 G | A2 B | ("C"c3 | c3) |]
w:Til de ly-se net-ter, Hils dem! Hils fra meg!

